X:1
T:Jesus Will Help You
T:Jesus Will Help You
T:Robert Lowry
T:William Stevenson, 1875
T:Public Domain Courtesy of the Cyber Hymnal™
C:Robert Lowry
Z:Public Domain
Z:Courtesy of the Cyber Hymnal™
%%score ( 1 2 ) 3
L:1/8
Q:1/4=90
M:6/8
K:F
V:1 treble 
V:2 treble 
V:3 bass 
V:1
 [Fc] | [Fc]>[Fc][Fc] [Fd][Fc][FA] | [EG] F3 z2 | [FA]>[FG]F [Fc][EB][FA] | [EG]3- [EG]2 [Ec] | %5
w: 1.~The|Sav- ior is call- ing you,|sin- ner—|Urg- ing you now to draw|nigh; * He|
w: 2.~Thro’|Him there is life in be-|liev- ing;|Sin- ner, oh, why will you|die? * Ac-|
w: 3.~The|Sav- ior is call- ing you,|wan- derer—|Points you to man- sions on|high; * Re-|
w: 4.~There’s|dan- ger in long- er de-|lay- ing—|Swift- ly the mo- ments pass|by; * If|
 [Fc]>[Fc][Fc] [Fd][Fc][FA] | [EG] F3 z2 | [FA]>[FG]F [Ec]>[EG][EA] | F6 || %9
w: asks you by faith to re-|ceive Him;|Je- sus will help if you|try.|
w: cept Him by faith as your|Sav- ior;|Je- sus will help if you|try.|
w: turn to the path that leads|home- ward;|Je- sus will help if you|try.|
w: now you will come, there is|mer- cy;|Je- sus will help if you|try.|
"^Refrain" [Fd]>[Fd][Fd] [FB] [Fd]2 | [Fc]>[Fc][Fc] [FA] [Ac]2 | [GB]>[GB][GB] [FA][CG][DF] | %12
w: |||
w: |||
w: |||
w: |||
 [Ec]3- [Ec]2 [Gc] | [Fc]>[Fc][Fc] [Fd][Fc][FA] | [EG][DF][EG] [FA] [Ac]2 | %15
w: |||
w: |||
w: |||
w: |||
 [FA]>[FG]F [Ec]>[EG][EA] | F3- F2 |] %17
w: ||
w: ||
w: ||
w: ||
V:2
 x | x6 | x F3 x2 | x2 F x3 | x6 | x6 | x F3 x2 | x2 F x3 | F6 || x6 | x6 | x6 | x6 | x6 | x6 | %15
 x2 F x3 | F3- F2 |] %17
V:3
 [F,A,] | [F,A,]>[F,A,][F,A,] [F,B,][F,A,][F,C] | [C,B,] [F,A,]3 z2 | %3
w: |||
 [F,C]>[F,B,][F,A,] [A,C][G,C][F,C] | [C,C]3- [C,C]2 [C,B,] | [F,A,]>A,[F,A,] [F,B,][F,A,][F,C] | %6
w: |||
 [C,B,] [F,A,]3 z2 | [F,C]>[F,B,][F,A,] [C,G,]>[C,B,][C,C] | [F,A,]6 || %9
w: |||
 [B,,B,]>[B,,B,][B,,B,] [B,,D] [B,,B,]2 | [F,A,]>[F,A,][F,A,] [F,C] [F,C]2 | %11
w: Je- sus will help you,|Je- sus will help you,|
 [E,C]>[E,C][E,C] [F,C][E,C][D,=B,] | [C,C]3- [C,C]2 [E,B,] | %13
w: Help you with grace from on|high; * The|
 [F,A,]>[F,A,][F,A,] [F,B,][F,A,][F,C] | [C,C][C,C][C,C] [F,C] [F,F]2 | %15
w: weak- est and poor- est The|Sav- ior is call- ing;|
 [F,C]>[F,B,][F,A,] [C,G,]>[C,B,][C,C] | [F,A,]3- [F,A,]2 |] %17
w: Je- sus will help if you|try. *|

